!! 00049] TT[KA
!! NN
!!!OTL: Unbekannt
!!!ARE: NN
!! Ethnic Group: 
!! 
!!!SCT: C0000
!!!YEM: Copyright 1995, estate of Helmut Schaffrath.
**kern
*ICvox
*Ivox
!! Mixed meters:  2/4; 3/4
*M3/4
*k[f#c#g#]
*A:
{16a
16b
16cc#
16ee
16cc#
16b
16a
16f#
=1
16a
16b
16cc#
16b
8cc#
4b
8cc#}
=2
*M2/4
{8g#
8f#
8g#
8b
=3
*M3/4
8g#
8f#
16e
16f#
4e
16f#
16a}
=4
*M2/4
{16a
16b
8cc#
8g#
8f#
=5
*M3/4
16a
16b
16cc#
16b
2a}
=6
*M2/4
{8cc#
8ee
16cc#
16b
8a
=7
*M3/4
16a
16b
8cc#
16b
16cc#
4b
8cc#}
=8
*M2/4
{8g#
8f#
8g#
8b
=9
*M3/4
8g#
8f#
16e
16f#
4e
8f#}
=10
*M2/4
{16a
16b
8cc#
8g#
8f#
=11
16a
16b
16cc#
16b
2a}
==
!!!ONB: ESAC (Essen Associative Code) Database: CHINA
!!!AMT: irregular
!!!AIN: vox
!!!EED: Helmut Schaffrath
!!!EEV: 1.0
*-
